X:303
T:
R:polska
S:Efter »Florsen» i Burs.
O:Gotland, Burs
M:3/4
L:1/16
K:D
d2cB A2FA G2EG|F2DF E2CE D4|d2cd e2de f2ef|1 g2fg a2ga b2a2|
a2fa g2eg f2ed|cdef edcB A4:|2 gfge e4 d4::d2Bd c2Ac B3c|
d3f edcB B2A2|d2dB c2cA B2Bc|d2df edcB A4|d2cB A2FA G2EG|
F2DF E2CE D4|dcdf edeg fdfa|gfgc e4 d4:|

